FINK
CUT[JA WIR SIND ARM UND IHR SEID REICH]
REG[Europa, Mitteleuropa, Deutschland; Schottland?]
KEY[F0188  16  F 3/4]
MEL[-7_  1_3_2__.-7_  1_6_5__.
    4_  3_1_2__.-7_  1_1_1__.
    -7_  1_3_2__.-7_  1_6_5__.
    4_  3_1_2__.-7_  1_1_1__.
    5_  5_5_5__.6_  6_6_6__.
    5_  5_+1_+1__.5_  5_67+1__.
    -7_  1_3_2__.-7_  1_6_5__.
    4_  3_1_2__.-7_  1_1_1__0_ //] >>
FCT[Liebes - Lied]
